public/logos/HZ.svg

<?xml version="1.0" encoding="UTF-8"?>
<svg xmlns="http://www.w3.org/2000/svg" xmlns:xlink="http://www.w3.org/1999/xlink" width="98.24pt" height="59pt" viewBox="0 0 98.24 59" version="1.1">
<defs>
<clipPath id="clip1">
  <path d="M 68 7 L 98.238281 7 L 98.238281 38 L 68 38 Z M 68 7 "/>
</clipPath>
</defs>
<g id="surface1">
<path style=" stroke:none;fill-rule:nonzero;fill:rgb(11.584473%,18.266296%,31.529236%);fill-opacity:1;" d="M 12.972656 51.667969 C 12.167969 49.09375 11.46875 46.644531 10.554688 44.242188 C 9.714844 46.695312 8.976562 49.136719 8.261719 51.667969 C 9.878906 51.667969 11.351562 51.667969 12.972656 51.667969 Z M 0 58.507812 C 0.136719 58.296875 0.316406 58.097656 0.402344 57.867188 C 2.765625 51.46875 5.121094 45.070312 7.476562 38.671875 C 7.582031 38.386719 7.699219 38.101562 7.832031 37.761719 C 9.667969 37.761719 11.496094 37.761719 13.367188 37.761719 C 13.460938 37.960938 13.5625 38.15625 13.640625 38.363281 C 16.148438 44.949219 18.652344 51.53125 21.152344 58.117188 C 21.261719 58.402344 21.316406 58.703125 21.394531 59 C 19.304688 59 17.214844 59 15.121094 59 C 15.054688 58.011719 14.636719 57.128906 14.34375 56.207031 C 11.832031 56.207031 9.390625 56.207031 6.84375 56.207031 C 6.609375 57.152344 6.378906 58.078125 6.148438 59 C 4.097656 59 2.050781 59 0 59 C 0 58.835938 0 58.671875 0 58.507812 "/>
<path style=" stroke:none;fill-rule:nonzero;fill:rgb(11.584473%,18.266296%,31.529236%);fill-opacity:1;" d="M 81.761719 50.882812 C 81.765625 52.984375 83.367188 54.582031 85.453125 54.574219 C 87.503906 54.558594 89.082031 52.949219 89.078125 50.875 C 89.074219 48.796875 87.503906 47.203125 85.445312 47.195312 C 83.34375 47.183594 81.761719 48.773438 81.761719 50.882812 Z M 81.765625 59 C 81.589844 58.847656 81.433594 58.660156 81.234375 58.550781 C 75.820312 55.574219 75.335938 47.34375 80.367188 43.753906 C 82.761719 42.042969 85.789062 41.957031 88.28125 43.527344 C 88.46875 43.644531 88.652344 43.765625 88.925781 43.941406 C 88.988281 43.539062 89.035156 43.230469 89.085938 42.933594 C 89.53125 42.75 92.621094 42.695312 93.617188 42.855469 C 93.652344 43.019531 93.722656 43.210938 93.722656 43.402344 C 93.726562 48.539062 93.722656 53.679688 93.71875 58.816406 C 93.71875 58.878906 93.699219 58.9375 93.691406 59 C 92.132812 59 90.574219 59 89.019531 59 C 88.984375 58.636719 89.121094 58.246094 88.839844 57.871094 C 88.226562 58.257812 87.640625 58.628906 87.050781 59 C 85.289062 59 83.527344 59 81.765625 59 "/>
<path style=" stroke:none;fill-rule:nonzero;fill:rgb(11.584473%,18.266296%,31.529236%);fill-opacity:1;" d="M 60.71875 50.925781 C 60.738281 48.871094 59.171875 47.257812 57.152344 47.246094 C 55.125 47.234375 53.53125 48.824219 53.527344 50.867188 C 53.519531 52.921875 55.09375 54.511719 57.125 54.511719 C 59.128906 54.511719 60.703125 52.941406 60.71875 50.925781 Z M 54.097656 59 C 53.824219 58.8125 53.5625 58.589844 53.269531 58.4375 C 48.234375 55.898438 47.550781 49.882812 50.019531 46.175781 C 51.902344 43.34375 55.457031 41.878906 58.816406 42.578125 C 62.285156 43.296875 64.875 45.910156 65.492188 49.316406 C 66.195312 53.203125 64.28125 56.894531 60.695312 58.589844 C 60.484375 58.6875 60.3125 58.859375 60.125 59 C 58.117188 59 56.105469 59 54.097656 59 "/>
<path style=" stroke:none;fill-rule:nonzero;fill:rgb(11.584473%,18.266296%,31.529236%);fill-opacity:1;" d="M 25.328125 59 C 25.214844 58.890625 25.121094 58.75 24.988281 58.675781 C 23.054688 57.625 22.140625 55.917969 21.894531 53.800781 C 21.820312 53.152344 21.792969 52.496094 21.792969 51.839844 C 21.78125 49.136719 21.785156 46.433594 21.789062 43.726562 C 21.789062 43.449219 21.820312 43.167969 21.84375 42.832031 C 23.445312 42.832031 24.988281 42.832031 26.625 42.832031 C 26.648438 43.136719 26.695312 43.429688 26.695312 43.726562 C 26.699219 46.46875 26.695312 49.214844 26.703125 51.960938 C 26.703125 52.328125 26.722656 52.699219 26.789062 53.058594 C 26.996094 54.171875 27.726562 54.859375 28.753906 54.953125 C 29.996094 55.0625 31.027344 54.542969 31.386719 53.488281 C 31.601562 52.863281 31.703125 52.171875 31.710938 51.507812 C 31.746094 48.90625 31.722656 46.304688 31.726562 43.703125 C 31.726562 43.441406 31.753906 43.179688 31.773438 42.804688 C 33.378906 42.75 34.9375 42.777344 36.632812 42.792969 C 36.632812 48.246094 36.636719 53.625 36.640625 59 C 35.042969 59 33.445312 59 31.84375 59 C 31.816406 58.597656 31.789062 58.195312 31.753906 57.695312 C 31.308594 58.011719 30.992188 58.222656 30.6875 58.453125 C 30.453125 58.625 30.230469 58.816406 30 59 C 28.441406 59 26.886719 59 25.328125 59 "/>
<g clip-path="url(#clip1)" clip-rule="nonzero">
<path style=" stroke:none;fill-rule:nonzero;fill:rgb(11.584473%,18.266296%,31.529236%);fill-opacity:1;" d="M 98.238281 28.015625 C 98.101562 28.242188 97.914062 28.457031 97.832031 28.703125 C 96.40625 32.878906 93.648438 35.757812 89.445312 37.128906 C 81.585938 39.691406 73.429688 34.425781 72.527344 26.234375 C 72.078125 22.136719 73.351562 18.601562 76.1875 15.621094 C 77.390625 14.359375 77.644531 12.671875 76.828125 11.214844 C 75.972656 9.6875 74.15625 8.984375 72.496094 9.539062 C 70.882812 10.074219 69.800781 11.746094 70.019531 13.355469 C 70.273438 15.230469 71.628906 16.523438 73.445312 16.621094 C 73.660156 16.632812 73.878906 16.648438 74.203125 16.667969 C 73.835938 17.261719 73.523438 17.757812 73.203125 18.273438 C 72.1875 18.339844 71.34375 17.941406 70.558594 17.40625 C 68.574219 16.042969 67.773438 13.445312 68.605469 11.132812 C 69.417969 8.867188 71.738281 7.414062 74.175781 7.644531 C 76.578125 7.871094 78.539062 9.699219 78.941406 12.089844 C 79.25 13.921875 78.707031 15.488281 77.433594 16.816406 C 75.832031 18.484375 74.78125 20.433594 74.34375 22.71875 C 73.03125 29.566406 78.34375 35.960938 85.316406 36.042969 C 90.605469 36.105469 95.757812 32.253906 96.601562 26.308594 C 97.394531 20.738281 93.820312 15.34375 88.347656 13.890625 C 88.09375 13.824219 87.839844 13.753906 87.515625 13.664062 C 87.515625 13.132812 87.515625 12.617188 87.515625 12.023438 C 87.738281 12.042969 87.976562 12.03125 88.203125 12.085938 C 93.058594 13.269531 96.265625 16.246094 97.867188 20.96875 C 97.949219 21.203125 98.113281 21.40625 98.238281 21.621094 C 98.238281 23.753906 98.238281 25.886719 98.238281 28.015625 "/>
</g>
<path style=" stroke:none;fill-rule:nonzero;fill:rgb(11.584473%,18.266296%,31.529236%);fill-opacity:1;" d="M 67.132812 59 C 67.148438 58.671875 67.179688 58.347656 67.179688 58.019531 C 67.183594 53.292969 67.179688 48.566406 67.1875 43.835938 C 67.1875 43.519531 67.222656 43.199219 67.246094 42.828125 C 68.765625 42.828125 70.203125 42.828125 71.753906 42.828125 C 71.753906 43.589844 71.753906 44.308594 71.753906 45.03125 C 71.804688 45.054688 71.859375 45.082031 71.910156 45.105469 C 72.96875 43.617188 74.289062 42.601562 76.300781 42.570312 C 76.367188 44.164062 76.339844 45.679688 76.324219 47.238281 C 75.972656 47.308594 75.699219 47.363281 75.421875 47.421875 C 73.367188 47.839844 72.269531 49.050781 72.175781 51.144531 C 72.105469 52.800781 72.132812 54.457031 72.132812 56.117188 C 72.132812 57.078125 72.160156 58.039062 72.171875 59 C 70.492188 59 68.8125 59 67.132812 59 "/>
<path style=" stroke:none;fill-rule:nonzero;fill:rgb(11.584473%,18.266296%,31.529236%);fill-opacity:1;" d="M 38.976562 59 C 38.972656 53.816406 38.96875 48.632812 38.964844 43.449219 C 38.964844 43.269531 39 43.089844 39.027344 42.84375 C 40.496094 42.84375 41.929688 42.84375 43.472656 42.84375 C 43.472656 43.617188 43.472656 44.359375 43.472656 45.105469 C 43.527344 45.140625 43.578125 45.171875 43.632812 45.210938 C 44.648438 43.582031 46.046875 42.644531 48.023438 42.550781 C 48.023438 44.171875 48.023438 45.675781 48.023438 47.238281 C 47.757812 47.296875 47.503906 47.355469 47.246094 47.40625 C 45.125 47.8125 44.011719 49.035156 43.914062 51.195312 C 43.84375 52.789062 43.878906 54.390625 43.878906 55.988281 C 43.875 56.992188 43.886719 57.996094 43.894531 59 C 42.253906 59 40.613281 59 38.976562 59 "/>
<path style=" stroke:none;fill-rule:nonzero;fill:rgb(11.584473%,18.266296%,31.529236%);fill-opacity:1;" d="M 84.890625 21.09375 C 85.257812 20.496094 85.558594 19.996094 85.882812 19.472656 C 86.65625 19.441406 87.34375 19.695312 87.992188 20.042969 C 90.601562 21.441406 91.574219 24.828125 90.148438 27.367188 C 88.613281 30.101562 85.25 30.914062 82.710938 29.414062 C 80.042969 27.839844 79.25 24.449219 80.90625 21.878906 C 81.152344 21.503906 81.453125 21.164062 81.753906 20.832031 C 84.859375 17.394531 85.804688 13.445312 84.191406 9.097656 C 82.601562 4.8125 79.382812 2.332031 74.824219 1.816406 C 68.480469 1.101562 62.933594 5.761719 62.425781 12.117188 C 61.992188 17.535156 65.445312 22.4375 70.703125 23.871094 C 70.976562 23.945312 71.246094 24.03125 71.570312 24.128906 C 71.570312 24.671875 71.570312 25.1875 71.570312 25.789062 C 71.214844 25.734375 70.898438 25.707031 70.589844 25.628906 C 64.808594 24.214844 60.761719 19.152344 60.636719 13.191406 C 60.476562 5.519531 67.214844 -0.707031 74.839844 0.0664062 C 81.5 0.738281 86.472656 6.011719 86.644531 12.691406 C 86.734375 16.292969 85.496094 19.441406 82.976562 22.046875 C 81.402344 23.667969 81.363281 25.945312 82.910156 27.417969 C 84.066406 28.523438 85.851562 28.738281 87.238281 27.941406 C 88.636719 27.140625 89.335938 25.53125 88.980469 23.945312 C 88.628906 22.398438 87.246094 21.230469 85.648438 21.132812 C 85.433594 21.117188 85.21875 21.109375 84.890625 21.09375 "/>
<path style=" stroke:none;fill-rule:nonzero;fill:rgb(11.584473%,18.266296%,31.529236%);fill-opacity:1;" d="M 86.332031 18.582031 C 86.519531 18.058594 86.695312 17.589844 86.890625 17.046875 C 87.242188 17.117188 87.542969 17.144531 87.824219 17.230469 C 91.480469 18.355469 93.851562 22.136719 93.273438 25.890625 C 92.660156 29.839844 89.421875 32.667969 85.507812 32.679688 C 82.230469 32.691406 79.382812 30.832031 78.136719 27.875 C 76.882812 24.894531 77.570312 21.550781 79.828125 19.171875 C 82.296875 16.566406 83.054688 13.480469 81.855469 10.085938 C 80.671875 6.746094 78.1875 4.820312 74.675781 4.332031 C 70.089844 3.695312 65.6875 7.070312 65.03125 11.660156 C 64.402344 16.0625 66.914062 20.042969 71.160156 21.367188 C 71.394531 21.441406 71.621094 21.519531 71.929688 21.617188 C 71.847656 22.144531 71.773438 22.636719 71.6875 23.199219 C 71.382812 23.15625 71.140625 23.152344 70.914062 23.089844 C 66.0625 21.796875 62.820312 17.183594 63.226562 12.160156 C 63.636719 7.128906 67.554688 3.109375 72.5625 2.59375 C 76.851562 2.152344 81.042969 4.414062 82.953125 8.199219 C 84.941406 12.136719 84.328125 16.828125 81.367188 20.046875 C 80.460938 21.027344 79.664062 22.054688 79.40625 23.390625 C 78.917969 25.871094 79.578125 28.011719 81.574219 29.597656 C 83.558594 31.179688 85.804688 31.445312 88.09375 30.34375 C 90.382812 29.242188 91.570312 27.332031 91.601562 24.789062 C 91.640625 21.925781 89.730469 19.5 86.972656 18.789062 C 86.78125 18.738281 86.59375 18.667969 86.332031 18.582031 "/>
<path style=" stroke:none;fill-rule:nonzero;fill:rgb(11.584473%,18.266296%,31.529236%);fill-opacity:1;" d="M 87.164062 16.082031 C 87.234375 15.617188 87.308594 15.125 87.394531 14.5625 C 87.722656 14.617188 87.984375 14.632812 88.230469 14.703125 C 93.035156 16.027344 96.265625 20.625 95.855469 25.558594 C 95.4375 30.644531 91.585938 34.632812 86.578125 35.164062 C 82.167969 35.636719 77.953125 33.335938 76.046875 29.421875 C 74.09375 25.40625 74.789062 20.734375 77.921875 17.527344 C 80.554688 14.828125 80.324219 10.886719 77.996094 8.585938 C 76.265625 6.871094 73.554688 6.324219 71.332031 7.257812 C 68.964844 8.253906 67.488281 10.410156 67.480469 12.902344 C 67.472656 15.90625 69.34375 18.304688 72.257812 19.03125 C 72.394531 19.066406 72.527344 19.117188 72.765625 19.195312 C 72.574219 19.707031 72.398438 20.195312 72.191406 20.75 C 71.839844 20.671875 71.519531 20.625 71.21875 20.53125 C 67.921875 19.496094 65.738281 16.457031 65.757812 12.949219 C 65.777344 9.277344 68.296875 6.078125 71.78125 5.300781 C 75.304688 4.515625 78.835938 6.03125 80.519531 9.054688 C 82.292969 12.238281 81.785156 16 79.230469 18.632812 C 74.972656 23.015625 76.265625 30.15625 81.78125 32.714844 C 85.378906 34.382812 89.769531 33.351562 92.222656 30.265625 C 94.753906 27.078125 94.804688 22.683594 92.371094 19.492188 C 91.199219 17.953125 89.675781 16.945312 87.84375 16.382812 C 87.6875 16.332031 87.53125 16.289062 87.375 16.234375 C 87.320312 16.214844 87.277344 16.164062 87.164062 16.082031 "/>
</g>
</svg>

<svg xmlns="http://www.w3.org/2000/svg" width="98.24pt" height="59pt" viewBox="0 0 98.24 59"><defs><clipPath id="a"><path d="M68 7h30.238v31H68Zm0 0"/></clipPath></defs><path d="M12.973 51.668c-.805-2.574-1.504-5.023-2.418-7.426a141 141 0 0 0-2.293 7.426zM0 58.508c.137-.211.316-.41.402-.64q3.544-9.6 7.075-19.196c.105-.285.222-.57.355-.91h5.535c.094.199.195.394.274.601 2.507 6.586 5.011 13.168 7.511 19.754.11.285.164.586.243.883H15.12c-.066-.988-.484-1.871-.777-2.793h-7.5c-.235.945-.465 1.871-.696 2.793H0zM81.762 50.883c.004 2.101 1.605 3.699 3.691 3.691 2.05-.015 3.629-1.625 3.625-3.699-.004-2.078-1.574-3.672-3.633-3.68-2.101-.011-3.683 1.578-3.683 3.688M81.766 59c-.176-.152-.332-.34-.532-.45-5.414-2.976-5.898-11.206-.867-14.796 2.395-1.711 5.422-1.797 7.914-.227.188.118.371.239.645.414.062-.402.11-.71.16-1.007.445-.184 3.535-.239 4.531-.079.035.165.106.356.106.547.004 5.137 0 10.278-.004 15.414 0 .063-.02.121-.028.184H89.02c-.036-.363.101-.754-.18-1.129L87.05 59zM60.719 50.926c.02-2.055-1.547-3.668-3.567-3.68-2.027-.012-3.62 1.578-3.625 3.621-.007 2.055 1.567 3.645 3.598 3.645 2.004 0 3.578-1.57 3.594-3.586M54.098 59c-.274-.187-.535-.41-.828-.562-5.036-2.54-5.72-8.555-3.25-12.262 1.882-2.832 5.437-4.297 8.796-3.598 3.47.719 6.059 3.332 6.676 6.738.703 3.887-1.21 7.579-4.797 9.274-.21.097-.383.27-.57.41zM25.328 59c-.113-.11-.207-.25-.34-.324-1.933-1.051-2.847-2.758-3.093-4.875a17 17 0 0 1-.102-1.961c-.012-2.703-.008-5.406-.004-8.113 0-.278.031-.559.055-.895h4.781c.023.305.07.598.07.895.004 2.742 0 5.488.008 8.234 0 .367.02.738.086 1.098.207 1.113.938 1.8 1.965 1.894 1.242.11 2.273-.41 2.633-1.465a6.4 6.4 0 0 0 .324-1.98c.035-2.602.012-5.203.016-7.805 0-.262.027-.523.046-.898 1.606-.055 3.165-.028 4.86-.012 0 5.453.004 10.832.008 16.207h-4.797l-.09-1.305c-.445.317-.762.528-1.067.758-.234.172-.457.363-.687.547z" style="stroke:none;fill-rule:nonzero;fill:#1e2f50;fill-opacity:1"/><g clip-path="url(#a)"><path d="M98.238 28.016c-.136.226-.324.441-.406.687-1.426 4.176-4.184 7.055-8.387 8.426-7.86 2.562-16.015-2.703-16.918-10.895-.449-4.097.825-7.632 3.66-10.613 1.204-1.262 1.458-2.95.641-4.406a3.64 3.64 0 0 0-4.332-1.676c-1.613.535-2.695 2.207-2.476 3.816.253 1.875 1.609 3.168 3.425 3.266.215.012.434.027.758.047-.367.594-.68 1.09-1 1.605-1.016.067-1.86-.332-2.644-.867-1.985-1.363-2.786-3.96-1.954-6.273.813-2.266 3.133-3.719 5.57-3.488a5.36 5.36 0 0 1 4.766 4.445c.309 1.832-.234 3.398-1.507 4.726-1.602 1.668-2.653 3.618-3.09 5.903-1.313 6.847 4 13.242 10.972 13.324 5.29.062 10.442-3.79 11.286-9.734.793-5.57-2.782-10.965-8.254-12.418a60 60 0 0 1-.832-.227v-1.64c.222.019.46.007.687.062 4.856 1.184 8.063 4.16 9.664 8.883.082.234.246.437.371.652z" style="stroke:none;fill-rule:nonzero;fill:#1e2f50;fill-opacity:1"/></g><path d="M67.133 59c.015-.328.047-.652.047-.98.004-4.727 0-9.454.007-14.184 0-.316.036-.637.06-1.008h4.507v2.203c.05.024.105.051.156.074 1.059-1.488 2.38-2.503 4.39-2.535.067 1.594.04 3.11.024 4.668-.351.07-.625.125-.902.184-2.055.418-3.152 1.629-3.246 3.723-.07 1.656-.043 3.312-.043 4.972 0 .961.027 1.922.039 2.883zM38.977 59l-.012-15.55c0-.18.035-.36.062-.606h4.446v2.261c.054.036.105.067.16.106 1.015-1.629 2.414-2.566 4.39-2.66v4.687c-.265.059-.52.117-.777.168-2.121.407-3.234 1.63-3.332 3.79-.07 1.593-.035 3.195-.035 4.792-.004 1.004.008 2.008.016 3.012zM84.89 21.094c.368-.598.669-1.098.993-1.621.773-.032 1.46.222 2.11.57 2.609 1.398 3.581 4.785 2.155 7.324-1.535 2.735-4.898 3.547-7.437 2.047-2.668-1.574-3.461-4.965-1.805-7.535.246-.375.547-.715.848-1.047 3.105-3.437 4.05-7.387 2.437-11.734-1.59-4.286-4.808-6.766-9.367-7.282-6.344-.714-11.89 3.946-12.398 10.301-.434 5.418 3.02 10.32 8.277 11.754.274.074.543.16.867.258v1.66c-.355-.055-.672-.082-.98-.16-5.781-1.414-9.828-6.477-9.953-12.438C60.477 5.52 67.215-.707 74.84.066c6.66.672 11.633 5.946 11.805 12.625.09 3.602-1.149 6.75-3.668 9.356-1.575 1.621-1.614 3.898-.067 5.371a3.67 3.67 0 0 0 4.328.523 3.66 3.66 0 0 0 1.742-3.996c-.351-1.547-1.734-2.715-3.332-2.812-.214-.016-.43-.024-.757-.04" style="stroke:none;fill-rule:nonzero;fill:#1e2f50;fill-opacity:1"/><path d="M86.332 18.582c.188-.523.363-.992.559-1.535.351.07.652.098.933.183 3.656 1.125 6.028 4.907 5.45 8.66-.614 3.95-3.852 6.778-7.766 6.79-3.278.011-6.125-1.848-7.371-4.805-1.254-2.98-.567-6.324 1.691-8.703 2.469-2.606 3.227-5.692 2.027-9.086-1.183-3.34-3.668-5.266-7.18-5.754-4.585-.637-8.987 2.738-9.644 7.328-.629 4.403 1.883 8.383 6.13 9.707.234.074.46.153.769.25l-.243 1.582c-.304-.043-.546-.047-.773-.11-4.852-1.292-8.094-5.905-7.687-10.929.41-5.031 4.328-9.05 9.336-9.566 4.289-.442 8.48 1.82 10.39 5.605 1.988 3.938 1.375 8.63-1.586 11.848-.906.98-1.703 2.008-1.96 3.344-.489 2.48.171 4.62 2.167 6.207 1.985 1.582 4.23 1.847 6.52.746 2.289-1.102 3.476-3.012 3.508-5.555.039-2.863-1.872-5.289-4.63-6-.19-.05-.378-.121-.64-.207" style="stroke:none;fill-rule:nonzero;fill:#1e2f50;fill-opacity:1"/><path d="m87.164 16.082.23-1.52c.329.055.59.07.836.141 4.805 1.324 8.036 5.922 7.625 10.856-.418 5.086-4.27 9.074-9.277 9.605-4.41.473-8.625-1.828-10.531-5.742-1.953-4.016-1.258-8.688 1.875-11.895 2.633-2.699 2.402-6.64.074-8.941-1.73-1.715-4.441-2.262-6.664-1.328-2.367.996-3.844 3.152-3.852 5.644-.007 3.004 1.864 5.403 4.778 6.13.137.034.27.085.508.163-.192.512-.368 1-.575 1.555-.351-.078-.671-.125-.972-.219-3.297-1.035-5.48-4.074-5.461-7.582.02-3.672 2.539-6.87 6.023-7.648 3.524-.785 7.055.73 8.739 3.754 1.773 3.183 1.265 6.945-1.29 9.578-4.257 4.383-2.964 11.523 2.551 14.082 3.598 1.668 7.989.637 10.442-2.45 2.53-3.187 2.582-7.581.148-10.773-1.172-1.539-2.695-2.547-4.527-3.11-.156-.05-.313-.093-.469-.148-.055-.02-.098-.07-.21-.152" style="stroke:none;fill-rule:nonzero;fill:#1e2f50;fill-opacity:1"/></svg>
